app/images/fb.svg

<?xml version="1.0" encoding="UTF-8"?>
<svg xmlns="http://www.w3.org/2000/svg" xmlns:xlink="http://www.w3.org/1999/xlink" width="px" height="20px" viewBox="0 0 13 20" version="1.1">
<g id="surface1">
<path style=" stroke:none;fill-rule:nonzero;fill:rgb(0%,0%,0%);fill-opacity:1;" d="M 11.339844 11.25 L 11.917969 7.628906 L 8.304688 7.628906 L 8.304688 5.28125 C 8.304688 4.292969 8.808594 3.328125 10.429688 3.328125 L 12.070312 3.328125 L 12.070312 0.246094 C 12.070312 0.246094 10.578125 0 9.15625 0 C 6.179688 0 4.238281 1.734375 4.238281 4.871094 L 4.238281 7.628906 L 0.929688 7.628906 L 0.929688 11.25 L 4.238281 11.25 L 4.238281 20 L 8.304688 20 L 8.304688 11.25 Z M 11.339844 11.25 "/>
</g>
</svg>

<svg xmlns="http://www.w3.org/2000/svg" width="px" height="20" viewBox="0 0 13 20"><path d="M11.34 11.25l.578-3.621H8.305V5.28c0-.988.504-1.953 2.125-1.953h1.64V.246S10.578 0 9.156 0C6.18 0 4.238 1.734 4.238 4.871V7.63H.93v3.621h3.308V20h4.067v-8.75zm0 0" id="surface1"/></svg>
